!! 00000] TT[WS
!!!OTL: Jie shunshun
!!!ARE: Asia, China,ÿShanxi Linxian
!! Ethnic Group: Han
!! WI, 147
!!!SCT: J0177
!!!YEM: Copyright 1995, estate of Helmut Schaffrath.
**kern
*ICvox
*Ivox
*M2/4
*k[f#c#]
*D:
{8ff#
16ff#
16ee
8dd
16b
16dd
=1
8ee
8f#
4e
=2
8ff#
16ff#
16ee
8dd
16b
16dd
=3
8dd
8f#
4e}
=4
{8ee
8ee
8ff#
16ee
16dd
=5
8a
16b
16a
8.d
16e
=6
8a
16a
16b
8dd
8f#
=7
8e
16f#
16e
4d}
==
!!!AGN: Xiaodiao. Qingge
!!!ONB: ESAC (Essen Associative Code) Database: CHINA
!!!AMT: simple duple
!!!AIN: vox
!!!EED: Helmut Schaffrath
!!!EEV: 1.0
*-
